X:107
T: Spottlied auf ein vornehm thuendes Maedchen
N: A0468
O: Europa, Mitteleuropa, Deutschland
N: Forster II 1540 No. 74.
R: Romanze, Ballade, Lied
M: 4/2
L: 1/4
K: G
g2 | g4g2g2 | =f4e2
d2 | e2d2d2c2 | d4z2
g2 | g4g2g2 | =f4e2
d2 | e2d2d2c2 | d4z2
g2 | =f2d2c2_B2 | A2G2A2
g2 | =f2d2c2_B2 | A2G2d2
e2 | d2c2A2zG | c2A2G2

@@@ Tune index: 420
